X:417
T: Zhuzongsiling daoguanting
N: C2035
O: China, Anhui Feixi
S: III, 519]
R: Xiaodiao, Yangge]
M: 2/4
L: 1/16
K: G
EGD2E2GA | BAGEG2E2 | G3ABddB | B2A4GE | G2AGE4
d2Bde2g2 | e2ded2B2 | d2e2e2dB | A6B2 | d2A2AGE2 | D4D2z2

